assets/img/braze_icons/right-indent-02.svg

<svg fill="none" height="24" viewBox="0 0 24 24" width="24" xmlns="http://www.w3.org/2000/svg"><g fill="#801ed7"><path d="m20.5311 1.50028c-.3882-.00807-.6913.16286-.851.26132-.1642.10126-.3509.24132-.5323.3774l-3.9172 2.9379c-.1245.09334-.2653.19888-.3782.30045-.1246.112-.308.29816-.4171.57889-.1361.34972-.1361.73771 0 1.08742.1091.28073.2925.46689.4171.57889.1129.10157.2537.20711.3783.30046l3.9172 2.93789c.1813.1361.368.2761.5322.3774.1597.0985.4628.2694.851.2613.4501-.0093.8723-.2204 1.1499-.5749.2393-.3057.2845-.6508.3015-.8376.0175-.19212.0175-.42548.0174-.65222v-5.86983c.0001-.22674.0001-.46013-.0174-.65225-.017-.18682-.0622-.53191-.3015-.8376-.2776-.3545-.6998-.56557-1.1499-.57492z"/><path d="m3 3c-.55228 0-1 .44772-1 1s.44772 1 1 1h9c.5523 0 1-.44771 1-1 0-.55228-.4477-1-1-1z"/><path d="m3 8.25c-.55228 0-1 .44772-1 1 0 .55229.44772 1 1 1h9c.5523 0 1-.44771 1-1 0-.55228-.4477-1-1-1z"/><path d="m2 14.75c0-.5523.44772-1 1-1h18c.5523 0 1 .4477 1 1s-.4477 1-1 1h-18c-.55228 0-1-.4477-1-1z"/><path d="m3 19c-.55228 0-1 .4477-1 1s.44772 1 1 1h18c.5523 0 1-.4477 1-1s-.4477-1-1-1z"/></g></svg>

<svg width="24" height="24" viewBox="0 0 24 24" fill="none" xmlns="http://www.w3.org/2000/svg">
<path d="M20.5311 1.50028C20.1429 1.49221 19.8398 1.66314 19.6801 1.7616C19.5159 1.86286 19.3292 2.00292 19.1478 2.139L15.2306 5.0769C15.1061 5.17024 14.9653 5.27578 14.8524 5.37735C14.7278 5.48935 14.5444 5.67551 14.4353 5.95624C14.2992 6.30596 14.2992 6.69395 14.4353 7.04366C14.5444 7.32439 14.7278 7.51055 14.8524 7.62255C14.9653 7.72412 15.1061 7.82966 15.2307 7.92301L19.1479 10.8609C19.3292 10.997 19.5159 11.137 19.6801 11.2383C19.8398 11.3368 20.1429 11.5077 20.5311 11.4996C20.9812 11.4903 21.4034 11.2792 21.681 10.9247C21.9203 10.619 21.9655 10.2739 21.9825 10.0871C22 9.89498 22 9.66162 21.9999 9.43488V3.56505C22 3.33831 22 3.10492 21.9825 2.9128C21.9655 2.72598 21.9203 2.38089 21.681 2.0752C21.4034 1.7207 20.9812 1.50963 20.5311 1.50028Z" fill="#801ED7"/>
<path d="M3 3C2.44772 3 2 3.44772 2 4C2 4.55228 2.44772 5 3 5L12 5C12.5523 5 13 4.55229 13 4C13 3.44772 12.5523 3 12 3L3 3Z" fill="#801ED7"/>
<path d="M3 8.25C2.44772 8.25 2 8.69772 2 9.25C2 9.80229 2.44772 10.25 3 10.25H12C12.5523 10.25 13 9.80229 13 9.25C13 8.69772 12.5523 8.25 12 8.25H3Z" fill="#801ED7"/>
<path d="M2 14.75C2 14.1977 2.44772 13.75 3 13.75H21C21.5523 13.75 22 14.1977 22 14.75C22 15.3023 21.5523 15.75 21 15.75H3C2.44772 15.75 2 15.3023 2 14.75Z" fill="#801ED7"/>
<path d="M3 19C2.44772 19 2 19.4477 2 20C2 20.5523 2.44772 21 3 21H21C21.5523 21 22 20.5523 22 20C22 19.4477 21.5523 19 21 19H3Z" fill="#801ED7"/>
</svg>
